X:122
L:1/8
M:4/4
K:C
[M:2/2][K:Ador] .abc A(E{F} (3EDE) c(E{F} (3EDE) | GFEF GFED | (3EFG (AB) cded | cBcd e2 fg | 
 abaf gbge | dBGB ABcd | (3efg (ed) cABG | AGEG !fermata!A2 (ea) ||{b} agea{b} agea | 
{b} agef g2 fg | agbg aged |{d} cBcd e2 (fg) | abaf gbge | dBGB ABcd | (3efg (ed) cABG | 
 AGEG AdcB"_D.C." |]

